X:1
T:Горними тихо летела душа небесами...
T:П.И. Чайковский
T:А.К. Толстой
%%score 1 { ( 2 4 ) | ( 3 5 6 ) }
L:1/8
Q:1/4=96
M:6/8
K:E
V:1 treble nm="Voice"
V:2 treble nm="Piano"
V:4 treble 
V:3 bass 
V:5 bass 
V:6 bass 
V:1
"^Andante con moto" z6 | z6 | z6 | z6 | z6 | z6 | z6 | z6 |!p! G ^^F G B A G | G F E F G A | %10
w: ||||||||Гор- ни- ми ти- хо ле-|те- ла ду- ша не- бе-|
 B3 G3 | z6 | B c d e d e | B ^A B c G B | c3 G3 | z6 | e d c B ^A G | F ^A G F ^A G | F3 G3 | %19
w: са- ми,||груст- ны- е до- лу о-|на о- пус- ка- ла рес-|ни- цы;||слё- зы,в про- стран- ство от|них у- па- да- я звез-|да- *|
 e d c B ^A G | F G B d G ^B | c6 | =B3 z3 | c F G A B c | d c B c d e | f2 B z3 | z6 | %27
w: свет- лой и длин- ной ви-|ли- ся за ней ве- ре-|ни-|цей|Встреч- ны- е ти- хо е-|ё во- про- ша- ли све-|ти- ла:||
 c F G A B c | d c B c d e | f2 B z3 | z6 | G B A G B A | G ^A ^B c d e | e2 F z3 | f d c B c d | %35
w: "Что ты груст- на? И о|чём э- ти слё- зы во|взо- ре?"||Им от- ве- ча- ла о-|на: "Я зем- ли не за-|бы- ла,|мно- го о- ста- ви- ла|
 e G ^A B ^A G | d3 ^A z2 | z6 | d3 ^A3 | z3 G G G | ^A3 A2 A | B6- | B ^A B c F G | =A G F B A G | %44
w: там я стра- да- нья и|го- ря,||Мно- го,|мно- го стра-|да- нья, ах,|мно-|* го о- ста- ви- ла|я там стра- да- нья и|
 c3 B3 |!f! G ^^F G B A G | G F E F G A | B3 G3 | z6 | B c d e d e | B ^A B c G B | c3 G3 | z6 | %53
w: го- ря|Здесь я лишь ли- кам бла-|женст- ва и ра- до- сти|внем- лю,||пра- вед- ных ду- ши не|зга- ют ни скор- би, ни|зло- бы,-||
 G^A^B cde | e=d=c =c=de | e3 B3 | z3 e d e | g4 f e | d ^^c d f e d | f2 e e e e | %60
w: о, от- пу- сти ме- ня|сно- ва, соз- да- тель, на|зем- лю|бы- ло о|ком по- жа-|леть и у- те- шить ко-|го бы. О, от- пу-|
 =d e =d =c =d =c | B ^A B !fermata!e2 E | z3 E F =G | ^G4 ^^F G | B A G ^F G F | B3 E3 | z6 | z6 | %68
w: сти ме- ня сно- ва, со-|зда- тель, на зем- лю,|бы- лоб о|ком по- жа-|леть и у- те- шить ко-|го бы."|||
 z6 | z6 | z6 | z6 | z6 |] %73
w: |||||
V:2
!mf! [GBg][^^FB^^f][GBg] [Beb][Aea][Geg] | ([Gg][^F^f])[^E^e] ([Ff][Gg])[Aa] | %2
 !>![Beb]2 !>![Ee]- [Ee]2 !>![Ee]- | [Ee]2 !>![Ee]- [Ee]2 !>![Ee] | G^^FG BAG | GFE FGA | %6
 !>!B3- B2 E | [G,B,E]3 !fermata!z3 | [G,B,EG][G,B,EG][G,B,EG] [G,B,EG][G,B,EG][G,B,EG] | %9
 [^A,EG][^A,EG][^A,EG] [=A,DF][A,DF][A,DF] | [G,E][G,E][G,E] [B,EG][B,EG][EB] | %11
 [EAe][EB][EAc] [EAe][EB][EAc] | [EB][EB][EB] [B,EG][B,EG][B,EG] | %13
 [G,E][G,E][G,E] [G,E][G,E][G,E] | [G,E][G,E][G,E] [CG][CG][EGc] | %15
 [EGe][E^^F^B][EGc] [EGe][E^^F^B][EGc] | [G,CEG][G,CEG][G,CEG] [G,CG][G,CG][G,B,=DG] | %17
 [B,^DF][B,^DF][B,^DF] [F,^A,CF][F,^A,CF][F,^A,CF] | F>G^A/B/ ^B>cd/g/ | %19
 [G,CEG][G,CEG][G,CEG] [G,CG][G,CG][G,B,=DG] | [B,^DF][B,^DF][B,^DF] [G,^B,DG][G,^B,DG][G,^B,DG] | %21
 G>^AB/^B/ c>de/f/ | f3 [CFA][CFA][CF] | [A,EF][A,EF][A,EF] [A,EF][A,EF][A,EF] | %24
 [A,DF][A,DF][A,DF] [=G,^A,C=G][=G,^A,C=G][=G,^A,C=G] | [=A,DF] z/ ^G/A/^A/ B>cd/e/ | %26
 f>ag/f/ f>ed/c/ | [A,EF][A,EF][A,EF] [A,EF][A,EF][A,EF] | %28
 [A,DF][A,DF][A,DF] [=G,^A,C=G][=G,^A,C=G][=G,^A,C=G] | [=A,DF] z/ ^G/A/^A/ B>cd/e/ | %30
 f>ed/c/ ^B>=AG/^^F/ | [G,CG][G,CG][G,CG] [G,^B,FG][G,^B,FG][G,^B,FG] | %32
 [G,CEG][G,CEG][G,CEG] [=G,CE=G][=G,CE=G][=G,CE=G] | [F,CEF][F,CEF][F,CEF] c>de/^e/ | %34
 f>g^a/b/ b>BB | [^A,E^A][^A,E^A][^A,E^A] [B,EG][B,EG][G,B,E] | %36
 [^^F,^A,D][F,A,D][F,A,D] [F,A,D][F,A,D][F,A,D] | G>^AG/A/ c>BA/G/ | %38
 [^^F,^A,D][F,A,D][F,A,D] [F,A,D][F,A,D][F,A,D] | G>^AG/A/ c>BA/G/ | D3 ^^F3 | ^F3 B3- | B z z4 | %43
 z6 | z3 [A,B,FA][A,B,FA][A,B,FA] | [G,B,EG][G,B,EG][G,B,EG] [G,B,EG][G,B,EG][G,B,EG] | %46
 [^A,EG][^A,EG][^A,EG] [=A,DF][A,DF][A,DF] | [G,E][G,E][G,E] [B,EG][B,EG][EB] | %48
 [EAe][EB][EAc] [EAe][EB][EAc] | [EB][EB][EB] [B,EG][B,EG][B,EG] | %50
 [G,E][G,E][G,E] [G,E][G,E][G,E] | [G,E][G,E][G,E] [CG][CG][EGc] | %52
 [EGe][E^^F^B][EGc] [EGe][E^^F^B][EGc] | [G,EG][G,EG][G,EG] [G,EG][G,EG][G,EG] | %54
 [^A,E=G^A][A,EGA][A,EGA] [A,EGA][A,EGA][A,EGA] | [B,E^GB][^C^c][^D^d] [Ee][Dd][Ee] | %56
 [C^^F^Ac]2 [Dd] [EGBe]3 | [D^FGd][Ee][Ff] [Gdfg]3 | %58
 [G,^B,FG][G,B,FG][G,B,FG] [G,CFG][G,CFG][G,CFG] | [G,EG][G,EG][G,EG] [^A,EG][A,EG][A,EG] | %60
 [B,=D=G]2 z [=A,=CF]2 z | [=G,B,E]2 z [G,^A,E]2 z | z6 | %63
 [B,EG][B,EG][B,EG] [^B,EG][^B,EG][^B,EG] | [CEG][CEG][CEG] [DAB][DAB][DAB] | %65
 [GBg][^^FB^^f][GBg] [Beb][Aea][Geg] | ([Gg][^F^f])[^E^e] ([Ff][Gg])[Aa] | %67
 !>![Beb]2 !>![Ee]- [E^Ae]2 !>![Ee]- | [E=Ae]2 !>![Ee]- [EGe]2 !>![Ee] | G^^FG BAG | GFE FGA | %71
 !>!B3- B2 E | [G,B,E]4 !fermata!z2 |] %73
V:3
 [E,B,E][E,B,E][E,B,E] [E,=DE][E,CE][E,CE] | [E,^A,E]3 [=E,=A,B,^D]3 | [E,G,B,=D]3 [E,=G,C]3 | %3
 [E,F,=C]3 [E,B,]3 |!p! [E,,=D,E,]6 | [C,,C,E,]3 [E,,=C,E,]3 | z3 !arpeggio![E,,B,,E,G,] z z | %7
 [E,,B,,E,]3 !fermata!z3 |!p! B,,6 | C,3 =C,3 | B,,3 E,2 G, | CG,A, CG,A, | !arpeggio!G,3 E,3 | %13
 [E,,B,,]3 [C,,C,]2 [E,,B,,] | C,3 E,2 G, | CA,G, CA,G, | [C,,C,]3 [E,,E,]2 [^E,,^E,] | %17
 [F,,F,]3 [=E,,=E,]3 | [D,,D,][D,F,B,][D,F,B,] [D,F,G,^B,][D,F,G,^B,][D,F,G,^B,] | %19
 [C,,C,]3 [E,,E,]2 [^E,,^E,] | [F,,F,]6 | %21
 [F,,,F,,][F,G,CE][F,G,CE] !arpeggio![^F,A,CEG][A,CEG][A,CEF] |{/B,,,} B,,>C,D,/E,/ F,>G,A,/B,/ | %23
 C3 F,3 | B,,3 E,,3 | B,,, [=A,B,DF][=A,B,DF] [=A,B,DF][=A,B,DF][=A,B,DF] | %26
 [G,^B,DF][G,^B,DF][G,^B,DF] [A,CF][A,CF][A,CF] | C3 F,3 | B,,3 E,,3 | %29
 B,,, [=A,B,DF][=A,B,DF] [=A,B,DF][=A,B,DF][=A,B,DF] | %30
 [G,^B,DF][G,^B,DF][G,^B,DF] [F,G,^B,D][F,G,^B,D][F,G,^B,D] | E,3 D,3 | C,3 B,,3 | %33
 ^A,,2 G,, F,,[E,F,^A,C][E,F,A,C] | %34
 [D,F,B,][D,F,B,][D,F,B,] !arpeggio![G,,D,G,B,][D,G,B,][D,G,B,] | [C,E,G,]3 [D,=E,G,]2 [D,E,] | %36
 ^A,,>B,,A,,/B,,/ D,>C,B,,/A,,/ | [E,,G,,] [E,G,C][E,G,C] [E,G,C][E,G,C][E,G,C] | %38
 ^A,,>B,,A,,/B,,/ D,>C,B,,/A,,/ | [E,,G,,] [E,G,C][E,G,C] [E,G,C][E,G,C][E,G,C] | %40
 ^A,,>B,,A,,/B,,/ A,,3 | B,,>C,B,,/C,/ B,,3- | B,, z z4 | z6 | z6 |!f! B,,6 | C,3 =C,3 | %47
 B,,3 E,2 G, | CG,A, CG,A, | !arpeggio!G,3 E,3 | [E,,B,,]3 [C,,C,]2 [E,,B,,] | C,3 E,2 G, | %52
 CA,G, CA,G, | [C,,C,]6 | [=C,,=C,]6 | %55
 [B,,,B,,][B,,E,^G,B,][B,,E,G,B,] [B,,E,G,B,][B,,E,G,B,][B,,E,G,B,] | %56
 [B,,E,^^F,^A,][B,,E,F,A,][B,,E,F,A,] [B,,E,G,B,][B,,E,G,B,][B,,E,G,B,] | %57
 [^B,,,^B,,] [B,,D,^F,G,^B,][B,,D,F,G,B,] [B,,D,F,G,B,][B,,D,F,G,B,][B,,D,F,G,B,] | %58
 [G,,,G,,]3 [^A,,,^A,,]2 [^B,,,^B,,] | [C,,C,]3 C,3 | =D,2 z ^D,2 z | E,2 z =C,2 z | z6 | %63
 [B,,,B,,]2 z z3 | =B,6 | [E,B,E][E,B,E][E,B,E] [E,=DE][E,CE][E,CE] | [E,^A,E]3 [=E,=A,B,^D]3 | %67
 [E,G,B,=D]3 [E,=G,C]3 | [E,F,=C]3 [E,B,]3 | [E,,=D,E,]6 | [E,,C,E,]3 [E,,=C,E,]3 | %71
 z3 !arpeggio![E,,B,,E,G,] z z | [E,,B,,E,]4 !fermata!z2 |] %73
V:4
 x6 | [ce]3 [B^d]3 | x3 ^A3 | =A3 G3 | [B,E]6 | [^A,E]3 [=A,E]3 | z3 B, x2 | x6 | x6 | x6 | x6 | %11
 x6 | x6 | x6 | x6 | x6 | x6 | x6 | B, x5 | x6 | x6 | [G,CE] x5 | z [DF=A][DFA] x3 | x6 | x6 | x6 | %26
 x6 | x6 | x6 | x6 | x6 | x6 | x6 | x6 | x6 | x6 | x6 | [G,C] x5 | x6 | [G,C] x5 | %40
 [^^F,^A,][F,A,][F,A,] [F,A,D][F,A,D][F,A,D] | [=A,B,][A,B,][A,B,] [A,B,F][A,B,F][A,B,F] | %42
 [A,B,F] z z4 | x6 | x6 | x6 | x6 | x6 | x6 | x6 | x6 | x6 | x6 | x6 | x6 | x6 | x6 | x6 | x6 | %59
 x6 | x6 | x6 | x6 | x6 | x6 | x6 | [ce]3 [B^d]3 | x6 | x6 | [B,E]6 | [^A,E]3 [=A,E]3 | z3 B, z z | %72
 x6 |] %73
V:5
 x6 | x6 | x6 | x6 | x6 | x6 | x6 | x6 | E,,6- | E,,6- | E,,3 E,3 | E,3 E,3 | !arpeggio![E,,B,,]6 | %13
 x6 | C,6- | C,6 | x6 | x6 | x6 | x6 | x6 | x6 | B,,2 x4 | x6 | x6 | x6 | x6 | x6 | x6 | x6 | x6 | %31
 x6 | x6 | x6 | x6 | x6 | D,,6 | x6 | D,,6 | x6 | D,,6 | D,,6- | D,, z z4 | x6 | x6 | E,,6- | %46
 E,,6- | E,,3 E,3 | E,3 E,3 | !arpeggio![E,,B,,]6 | x6 | C,6- | C,6 | x6 | x6 | x6 | x6 | x6 | x6 | %59
 x6 | x6 | x6 | x6 | x6 | x6 | x6 | x6 | x6 | x6 | x6 | x6 | x6 | x6 |] %73
V:6
 x6 | x6 | x6 | x6 | x6 | x6 | x6 | x6 | x6 | x6 | x6 | x6 | x6 | x6 | C,, x5 | x6 | x6 | x6 | x6 | %19
 x6 | x6 | x6 | x6 | x6 | x6 | x6 | x6 | x6 | x6 | x6 | x6 | x6 | x6 | x6 | x6 | x6 | x6 | x6 | %38
 x6 | x6 | x6 | x6 | x6 | x6 | x6 | x6 | x6 | x6 | x6 | x6 | x6 | C,, x5 | x6 | x6 | x6 | x6 | x6 | %57
 x6 | x6 | x6 | x6 | x6 | x6 | x6 | x6 | x6 | x6 | x6 | x6 | x6 | x6 | x6 | x6 |] %73

